X:1
T:Wholly Thine (Hawks)
T:Wholly Thine (Hawks)
T:Robert Lowry
T:Annie Sherwood Hawks, 1875
T:Public Domain Courtesy of the Cyber Hymnal™
C:Robert Lowry
Z:Public Domain
Z:Courtesy of the Cyber Hymnal™
%%score ( 1 2 ) ( 3 4 )
L:1/8
Q:1/4=110
M:6/8
K:Ab
V:1 treble 
V:2 treble 
V:3 bass 
V:4 bass 
V:1
 [Ec]2 [EA] [CA]2 [B,G] | [CA]3- [CA]2 [EA] | [DA]2 [DF] [DA]2 [DF] | [CE]6 | %4
w: 1.~Thine, most gra- cious|Lord, * O|make me whol- ly|Thine—|
w: 2.~Whol- ly Thine, my|Lord, * To|go when Thou dost|call;|
w: 3.~Whol- ly Thine, O|Lord, * In|ev- ery pass- ing|hour;|
w: 4.~Whol- ly Thine, O|Lord, * To|fa- shion as Thou|wilt,|
w: 5.~Thine, Lord, whol- ly|Thine, * For|ev- er one with|Thee—|
 [DE]2 [DB] [DB]2 [CA] | [Ec]2 [DB] [CA]2 [EA] | [EG]2 [=DF] [EG]2 [DF] | E6 || %8
w: Thine in thought, in|word and deed, For|Thou, O Christ, art|mine.|
w: Thine to yield my|ve- ry self In|all things, great and|small.|
w: Thine in si- lence,|Thine to speak, As|Thou dost grant the|power.|
w: Strength- en, bless and|keep the soul Which|Thou hast saved from|guilt.|
w: Root- ed, ground- ed|in Thy love, A-|bid- ing, sure and|free.|
"^Refrain" [EB]2 [EA] [EG]3 | [Ed]2 [Ec] B3 | [CA]2 [CA] [CA]2 [EB] | [Ec]2 [EA] [EB]3 | %12
w: ||||
w: ||||
w: Whol- ly Thine,|whol- ly Thine;|Thou hast bought me,|I am Thine;|
w: ||||
w: ||||
 [Ec]2 [EB] [Ec]2 [DB] | [CA]2 [DF] [CE]3 | [DF]2 [FA] [EA]2 [DG] | [CA]6 |] %16
w: ||||
w: ||||
w: Bless- èd Sav- ior,|Thou art mine;|Make me whol- ly|Thine.|
w: ||||
w: ||||
V:2
 x6 | x6 | x6 | x6 | x6 | x6 | x6 | E6 || x6 | x3 (E2 D) | x6 | x6 | x6 | x6 | x6 | x6 |] %16
V:3
 [A,,A,]2 [C,A,] E,2 E, | [A,,E,]3- [A,,E,]2 [C,A,] | [D,F,]2 [D,A,] [D,F,]2 [D,A,] | [A,,A,]6 | %4
 [E,G,]2 [E,G,] [E,G,]2 [F,A,] | [E,A,]2 [E,G,] [A,,A,]2 [A,,C] | %6
 [B,,B,]2 [B,,B,] [B,,B,]2 [B,,A,] | [E,G,]6 || [E,D]2 [E,C] [E,B,]3 | [E,B,]2 [E,A,] [D,G,]3 | %10
 [F,A,]2 [F,A,] [F,A,]2 [E,G,] | [A,,A,]2 [C,A,] [E,G,]3 | A,2 [E,G,] A,2 [E,G,] | %13
 [F,A,]2 [D,A,] [A,,A,]3 | [D,A,]2 [D,D] [E,C]2 [E,B,] | [A,,A,]6 |] %16
V:4
 x3 E,2 E, | x6 | x6 | x6 | x6 | x6 | x6 | x6 || x6 | x6 | x6 | x6 | A,2 A,2 x2 | x6 | x6 | x6 |] %16

